svgs/sharp-regular/outlet.svg

<svg xmlns="http://www.w3.org/2000/svg" viewBox="0 0 448 512"><!--! Font Awesome Pro 6.6.0 by @fontawesome - https://fontawesome.com License - https://fontawesome.com/license (Commercial License) Copyright 2024 Fonticons, Inc. --><path d="M48 80l0 352 352 0 0-352L48 80zM0 32l48 0 352 0 48 0 0 48 0 352 0 48-48 0L48 480 0 480l0-48L0 80 0 32zM80 256c0-77 57.6-112 57.6-112l172.8 0s57.6 35 57.6 112s-57.6 112-57.6 112l-172.8 0s-57.6-35-57.6-112zm96-48l0-16-32 0 0 16 0 48 0 16 32 0 0-16 0-48zm128 0l0-16-32 0 0 16 0 48 0 16 32 0 0-16 0-48zM200 296l0 24 48 0 0-24c0-13.3-10.7-24-24-24s-24 10.7-24 24z"/></svg>

<svg xmlns="http://www.w3.org/2000/svg" viewBox="0 0 448 512"><!--! Font Awesome Pro 6.4.2 by @fontawesome - https://fontawesome.com License - https://fontawesome.com/license (Commercial License) Copyright 2023 Fonticons, Inc. --><path d="M48 80V432H400V80H48zM0 32H48 400h48V80 432v48H400 48 0V432 80 32zM80 256c0-77 57.6-112 57.6-112H310.4s57.6 35 57.6 112s-57.6 112-57.6 112H137.6s-57.6-35-57.6-112zm96-48V192H144v16 48 16h32V256 208zm128 0V192H272v16 48 16h32V256 208zM200 296v24h48V296c0-13.3-10.7-24-24-24s-24 10.7-24 24z"/></svg>
